!!!OTL@@FUR: Benedete l'antigae
!!!OTL@IT: Benedetti gli antenati
!!!OTL@EN: Bless our ancestors
**kern
*clefG2
*k[b-]
*F:
*M3/4
*MM72
*>[A]
*>A
2cc
4cc
=2
4cc
4b-
4a
=3
4a
4b-
4cc
=4
4ee
2ee
=5
8.ee
16ee
8.dd
16dd
8.cc
16cc
=6
2.b-
=7
8.dd
16dd
8.cc
16cc
8.dd
16dd
=8
2.a
=9
2cc
4cc
=10
4cc
4b-
4a
=11
4a
4b-
4cc
=12
2.ee
=13
8.ee
16ee
8.dd
16dd
8.cc
16cc
=14
2.b-
=15
8.dd
16dd
8.cc
16cc
8.dd
16dd
=16
2.a
==
*-
!!!ARE: Friuli
!!!ENC: Kelly Leistikow
!!!END: 2002/03/07
!!!ref: @{OTL@@FUR}/@{OTL@EN}
